X: 646
T: Hai tai
L: 1/8
M: 2/4
K: F
d d d A/ c/ [I:setbarnb 1]| 
d4 | 
d f f/ d/ c/ A/ | 
G> AF2 | 
c> A d A | 
G AD2 | 
F F/ G/ A G/ F/ | 
D4 |]

@@@ Tune index: 9520
